usr/share/icons/biglinux-icons-material-dark/symbolic/actions/grid-rectangular.svg

<svg xmlns="http://www.w3.org/2000/svg" viewBox="0 0 16 16">
<defs id="defs3051">
<style id="current-color-scheme" type="text/css">
.ColorScheme-Contrast{color:#dedede}
</style>
</defs>
<path d="M3 2v1H2v1h1v2H2v1h1v2H2v1h1v2H2v1h1v1h1v-1h2v1h1v-1h2v1h1v-1h2v1h1v-1h1v-1h-1v-2h1V9h-1V7h1V6h-1V4h1V3h-1V2h-1v1h-2V2H9v1H7V2H6v1H4V2zm1 2h2v2H4zm3 0h2v2H7zm3 0h2v2h-2zM4 7h2v2H4zm3 0h2v2H7zm3 0h2v2h-2zm-6 3h2v2H4zm3 0h2v2H7zm3 0h2v2h-2z" class="ColorScheme-Contrast" style="fill:currentColor;fill-opacity:1;stroke:none"/>
</svg>

<svg xmlns="http://www.w3.org/2000/svg" viewBox="0 0 16 16">
  <defs id="defs3051">
    <style type="text/css" id="current-color-scheme">
      .ColorScheme-Text {
        color:#dedede;
      }
      </style>
  </defs>
 <path style="fill:currentColor;fill-opacity:1;stroke:none" 
     d="M 3 2 L 3 3 L 2 3 L 2 4 L 3 4 L 3 6 L 2 6 L 2 7 L 3 7 L 3 9 L 2 9 L 2 10 L 3 10 L 3 12 L 2 12 L 2 13 L 3 13 L 3 14 L 4 14 L 4 13 L 6 13 L 6 14 L 7 14 L 7 13 L 9 13 L 9 14 L 10 14 L 10 13 L 12 13 L 12 14 L 13 14 L 13 13 L 14 13 L 14 12 L 13 12 L 13 10 L 14 10 L 14 9 L 13 9 L 13 7 L 14 7 L 14 6 L 13 6 L 13 4 L 14 4 L 14 3 L 13 3 L 13 2 L 12 2 L 12 3 L 10 3 L 10 2 L 9 2 L 9 3 L 7 3 L 7 2 L 6 2 L 6 3 L 4 3 L 4 2 L 3 2 z M 4 4 L 6 4 L 6 6 L 4 6 L 4 4 z M 7 4 L 9 4 L 9 6 L 7 6 L 7 4 z M 10 4 L 12 4 L 12 6 L 10 6 L 10 4 z M 4 7 L 6 7 L 6 9 L 4 9 L 4 7 z M 7 7 L 9 7 L 9 9 L 7 9 L 7 7 z M 10 7 L 12 7 L 12 9 L 10 9 L 10 7 z M 4 10 L 6 10 L 6 12 L 4 12 L 4 10 z M 7 10 L 9 10 L 9 12 L 7 12 L 7 10 z M 10 10 L 12 10 L 12 12 L 10 12 L 10 10 z "
     class="ColorScheme-Text"
     />
</svg>
